X:46
T:Bellisle March. TJD.46
T:Monks’ March,aka. TJD.46
M:2/2
L:1/8
Q:1/4=140
S:T.J.Dixon MS2, Lincolnshire, early 19thC
R:march
A:Lincolnshire, Holton le Moor
Z:vmp.R.Greig2010
K:G
D|G2(G>B)A2(A>c)|B2 (g>e)d2>c2|B2(3dBG A2(3cAF|G2(G>G)G2z:|!
|:A|d>edc B2B2|c>dcBB2A2|d>edc Bdgf|edcBB2 (A>D)|!
G2(G>B)A2(A>c)|B2(g>e)d2>c2|B2(3dBGA2(3cAF|G2(G>G)G2z:|]

